images/faq-basket.svg

<svg width="58" height="49" viewBox="0 0 58 49" fill="none" xmlns="http://www.w3.org/2000/svg">
<path d="M2.98514 0.945137C1.62402 0.945137 0.801758 1.80877 0.801758 2.67239C0.801758 3.89093 1.62402 4.48903 2.98514 4.48903H7.11711C7.57348 4.48903 7.97195 4.79799 8.08561 5.23998L14.3796 29.7156C14.9298 31.8065 16.8991 33.2371 19.1676 33.2371H47.5099C49.7398 33.2371 51.6319 31.834 52.2207 29.789L57.5345 11.2386C58.0836 9.32172 56.6445 7.41248 54.6505 7.41248H19.7313C18.5116 7.41248 17.6566 8.61608 18.0582 9.76779C18.3063 10.4795 18.9776 10.9564 19.7313 10.9564H52.6268C53.2898 10.9564 53.7693 11.5898 53.5892 12.2279L49.0725 28.2363C48.8293 29.0981 48.043 29.6933 47.1476 29.6933H18.0161L10.9533 3.89093C10.3017 0.369229 8.57441 0.945137 6.74099 0.945137H2.98514Z" fill="#36A6F2"/>
<circle cx="23.5438" cy="41.7152" r="6.90903" fill="#36A6F2"/>
<circle cx="23.5439" cy="41.7158" r="4.03027" fill="white"/>
<circle cx="42.5448" cy="41.7147" r="6.90903" fill="#36A6F2"/>
<circle cx="42.5449" cy="41.7153" r="4.03027" fill="white"/>
</svg>

<svg width="58" height="49" fill="none" xmlns="http://www.w3.org/2000/svg"><path d="M2.985.945C1.624.945.802 1.81.802 2.672c0 1.219.822 1.817 2.183 1.817h4.132a1 1 0 01.969.751l6.294 24.476c.55 2.09 2.52 3.521 4.788 3.521H47.51c2.23 0 4.122-1.403 4.71-3.448l5.315-18.55a3 3 0 00-2.884-3.827H19.73a1.772 1.772 0 100 3.544h32.896a1 1 0 01.962 1.272l-4.517 16.008a2 2 0 01-1.924 1.457H18.016L10.953 3.891C10.302.369 8.574.945 6.741.945H2.985z" fill="#36A6F2"/><circle cx="23.544" cy="41.715" r="6.909" fill="#36A6F2"/><circle cx="23.544" cy="41.716" r="4.03" fill="#fff"/><circle cx="42.545" cy="41.715" r="6.909" fill="#36A6F2"/><circle cx="42.545" cy="41.715" r="4.03" fill="#fff"/></svg>
